lib/logo_tmp/nrk-logo-nrk-p3-urort-with-bg.svg

<svg width="114" height="24" viewBox="0 0 114 24" fill="none" xmlns="http://www.w3.org/2000/svg">
<rect width="114" height="24" fill="#FFE100"/>
<path d="M77.0498 13.2489C77.0571 13.7531 76.9974 14.256 76.8724 14.7444C76.7727 15.1415 76.585 15.5111 76.3232 15.8259C76.0609 16.1229 75.7261 16.347 75.3516 16.4765C74.8864 16.6332 74.3975 16.7076 73.9068 16.6961C73.335 16.7091 72.7663 16.6086 72.2336 16.4004C71.7656 16.208 71.3819 15.8543 71.1521 15.4034C70.8777 14.8087 70.7502 14.1567 70.7804 13.5024V6H69.0061V13.7908C68.9871 14.4917 69.1167 15.1886 69.3866 15.8357C69.6169 16.3694 69.9771 16.8371 70.4343 17.196C70.8944 17.5472 71.4201 17.8028 71.9804 17.948C72.5869 18.1082 73.2119 18.1876 73.8392 18.1843C74.7815 18.2211 75.7177 18.0175 76.5598 17.5928C77.2477 17.2211 77.8007 16.6415 78.1397 15.9368C78.4988 15.1531 78.675 14.2979 78.6548 13.4359V6.00085H77.0495L77.0498 13.2489Z" fill="black"/>
<path d="M84.7046 9.32045C84.3885 9.40497 84.0866 9.53595 83.809 9.7091C83.5207 9.88893 83.2542 10.1016 83.0148 10.3428C82.9748 10.3825 82.9359 10.4273 82.8965 10.4689V9.21033L81.1729 9.4638V17.9973H82.8965V11.6135C83.0246 11.5239 83.1571 11.4409 83.2936 11.3648C83.4627 11.2719 83.6377 11.19 83.8174 11.1198C83.9919 11.0522 84.1693 10.9931 84.3497 10.9424C84.5352 10.8907 84.7245 10.854 84.9158 10.8325C85.1206 10.8101 85.3269 10.8044 85.5326 10.8156L85.7354 9.22751C85.389 9.20247 85.0409 9.23386 84.7046 9.32045Z" fill="black"/>
<path d="M94.5561 8.99066L93.6098 9.98932C93.4854 9.89665 93.3556 9.81145 93.2212 9.73417C92.5148 9.35811 91.7229 9.17188 90.923 9.19371C90.1188 9.17545 89.3237 9.36758 88.6165 9.75106C87.9637 10.1164 87.4299 10.662 87.0787 11.3226C86.6971 12.0637 86.5082 12.889 86.5296 13.7224C86.5079 14.55 86.6877 15.3704 87.0534 16.1131C87.1503 16.2971 87.2617 16.473 87.3866 16.6392L86.4451 17.6427L87.2224 18.3521L88.1236 17.3782C88.2535 17.4753 88.3898 17.5637 88.5314 17.6427C89.2211 18.0047 89.9917 18.1849 90.7704 18.1662C91.5799 18.1833 92.3802 17.9912 93.0939 17.6086C93.7608 17.2402 94.3089 16.6893 94.6738 16.0205C95.0715 15.2722 95.2694 14.434 95.2483 13.5869C95.2678 12.7801 95.0848 11.9813 94.7161 11.2634C94.6158 11.0795 94.5011 10.9039 94.373 10.7382L95.3497 9.70037L94.5561 8.99066ZM88.6587 11.9143C88.8482 11.4911 89.164 11.137 89.5627 10.9004C89.9835 10.6669 90.4589 10.5503 90.9399 10.5624C91.3224 10.5537 91.7024 10.6257 92.0552 10.7737C92.2452 10.8591 92.4205 10.9739 92.5748 11.1139L88.6435 15.3598C88.4244 14.807 88.3203 14.2153 88.3376 13.621C88.3176 13.0354 88.4272 12.4526 88.6587 11.9143ZM93.1198 15.395C92.9265 15.8319 92.6054 16.2001 92.1988 16.4511C91.7911 16.6872 91.3265 16.8071 90.8554 16.7978C90.3885 16.8087 89.9281 16.6855 89.529 16.4429C89.4165 16.3706 89.3114 16.2875 89.2149 16.1948L93.1482 11.9481C93.2068 12.0827 93.2565 12.221 93.2972 12.3621C93.4085 12.7722 93.4625 13.1958 93.4577 13.6207C93.4778 14.2302 93.3624 14.8366 93.1198 15.3961V15.395Z" fill="black"/>
<path d="M100.943 9.32045C100.627 9.40503 100.325 9.536 100.048 9.7091C99.7594 9.889 99.4929 10.1016 99.2534 10.3428C99.2134 10.3825 99.1746 10.4273 99.1352 10.4689V9.21033L97.4116 9.4638V17.9973H99.1352V11.6135C99.2632 11.5239 99.3958 11.4409 99.5323 11.3648C99.7014 11.2719 99.8763 11.19 100.056 11.1198C100.231 11.0522 100.408 10.9931 100.588 10.9424C100.774 10.8908 100.963 10.8541 101.154 10.8325C101.359 10.8101 101.566 10.8044 101.771 10.8156L101.974 9.22751C101.628 9.20249 101.28 9.23387 100.943 9.32045Z" fill="black"/>
<path d="M108.277 16.5866C108.198 16.6032 108.111 16.6204 108.015 16.637L107.728 16.6877C107.636 16.7041 107.543 16.7154 107.449 16.7215C107.359 16.7274 107.274 16.7299 107.195 16.7299C106.937 16.7371 106.679 16.6851 106.444 16.5778C106.241 16.4818 106.072 16.3254 105.962 16.13C105.844 15.9097 105.785 15.6621 105.793 15.4122V10.7311H108.176L108.362 9.37931H105.793V6.70915L104.069 7.31748V9.37931H102.768L102.582 10.7311H104.069V15.7667C104.062 16.1026 104.113 16.4372 104.221 16.7553C104.308 17.0069 104.443 17.2393 104.619 17.4396C104.78 17.6181 104.975 17.7619 105.193 17.8621C105.417 17.9647 105.652 18.0385 105.894 18.0818C106.134 18.1259 106.377 18.1485 106.621 18.1493C106.801 18.1493 106.978 18.1437 107.154 18.1327C107.329 18.1217 107.488 18.1046 107.635 18.0818C107.782 18.0589 107.919 18.0336 108.049 18.006C108.178 17.9784 108.288 17.9525 108.378 17.9297L108.48 16.5274C108.414 16.5525 108.346 16.5723 108.277 16.5866Z" fill="black"/>
<path d="M52.476 6.00494H48.7748C48.7748 6.00494 50.8779 9.4575 50.9016 9.50096C50.9809 9.6008 51.0252 9.72392 51.0277 9.85137C51.0302 9.97882 50.9908 10.1036 50.9155 10.2064L48.7748 13.7154H52.4765C52.4765 13.7154 54.2616 10.7965 54.5057 10.3913C54.6215 10.236 54.6833 10.0471 54.6815 9.85344C54.6797 9.65977 54.6145 9.47202 54.4959 9.31894C54.2326 8.87055 54.232 8.87084 52.476 6.00494Z" fill="black"/>
<path d="M48.2965 6.00498H45V17.9982H48.2965V6.00498Z" fill="black"/>
<path d="M64.0693 7.99183C63.9449 7.77963 62.8433 6.00494 62.8433 6.00494H54.9206L56.6512 8.9078H60.8242L59.1029 11.7297L61.0217 14.9537L59.1698 17.9973H62.552C63.0958 17.1079 63.9088 15.732 64.0787 15.45C64.1952 15.2942 64.2573 15.1045 64.2555 14.91C64.2537 14.7154 64.1881 14.5269 64.0688 14.3732C63.8995 14.0842 62.9937 12.6476 62.4524 11.7633C62.4524 11.7633 63.9088 9.34999 64.0787 9.06808C64.1951 8.91239 64.2572 8.7228 64.2556 8.52839C64.2539 8.33398 64.1885 8.14549 64.0693 7.99183Z" fill="black"/>
<path d="M56.4486 12.1194C55.9271 12.971 55.0552 14.3983 54.8918 14.6766C54.7768 14.8246 54.7136 15.0062 54.7118 15.1936C54.7101 15.381 54.7699 15.5638 54.8822 15.7139C55.0458 15.9853 55.9246 17.424 56.4486 18.2818C56.9723 17.4248 57.8514 15.9862 58.0148 15.7139C58.1269 15.5638 58.1868 15.381 58.1851 15.1937C58.1834 15.0063 58.1203 14.8246 58.0055 14.6766C57.8421 14.3983 56.9698 12.971 56.4486 12.1194Z" fill="black"/>
<path d="M6.00427 18V6.00109H9.94146V18H6.00427ZM15.2981 7.91078L17.5623 18H13.2534L10.5498 6.00109H12.9664C13.5206 5.9939 14.0583 6.18925 14.4788 6.55039C14.8999 6.89638 15.1892 7.3767 15.2981 7.91078ZM18.1538 18V6.00109H22.091V18H18.1538ZM25.0647 10.5641C24.6405 10.5682 24.223 10.4572 23.8568 10.243C23.4955 10.0341 23.1954 9.73396 22.9865 9.3726C22.7721 9.00633 22.661 8.58876 22.6652 8.16432C22.6604 7.74246 22.7715 7.32738 22.9865 6.96443C23.1976 6.60699 23.4974 6.31009 23.8568 6.10252C24.2231 5.8885 24.6405 5.77751 25.0647 5.78138C25.4865 5.77684 25.9014 5.88793 26.2645 6.10252C26.6203 6.31191 26.9169 6.60856 27.1263 6.96443C27.3411 7.32748 27.4522 7.74249 27.4476 8.16432C27.4515 8.58873 27.3405 9.00623 27.1263 9.3726C26.9191 9.73238 26.6222 10.0323 26.2645 10.243C25.9014 10.458 25.4862 10.5691 25.0642 10.5641H25.0647ZM28.0559 18V6.00109H31.9934V18H28.0559ZM36.978 12.5582C36.9891 12.5699 37.0735 12.7079 37.2314 12.9723C37.3893 13.2367 37.5949 13.5747 37.8482 13.9863C38.1017 14.3977 38.3692 14.8343 38.6506 15.296C38.932 15.7577 39.1969 16.1944 39.4451 16.6058C39.6924 17.0172 39.974 17.4819 40.29 18H35.9641C35.6936 17.5606 35.4484 17.1635 35.2287 16.8086C35.0091 16.4537 34.7756 16.0706 34.5281 15.6594C34.2801 15.2485 34.0349 14.8485 33.7925 14.4595C33.5501 14.0704 33.3418 13.7296 33.1675 13.4371C32.9925 13.1443 32.8713 12.9471 32.8039 12.8455C32.6368 12.5934 32.5379 12.3023 32.517 12.0005C32.5337 11.7109 32.6269 11.431 32.787 11.1891C32.8546 11.0764 32.9786 10.8764 33.1588 10.5891C33.339 10.3018 33.5503 9.96105 33.7925 9.56672C34.0347 9.17239 34.2799 8.7696 34.5281 8.35837C34.7763 7.94715 35.0098 7.56124 35.2287 7.20071C35.4488 6.84055 35.6939 6.44059 35.9641 6.00081H40.29L36.9439 11.4595C36.8404 11.6216 36.782 11.8083 36.7749 12.0005C36.786 12.2023 36.8565 12.3963 36.9774 12.5582H36.978Z" fill="black"/>
</svg>

<svg xmlns="http://www.w3.org/2000/svg" viewBox="0 0 114 24"><path fill="#FFE100" d="M0 0h114v24H0z"/><path fill="#000" d="M77.05 13.249a5.699 5.699 0 0 1-.178 1.495c-.1.398-.287.767-.549 1.082a2.298 2.298 0 0 1-.971.65 4.216 4.216 0 0 1-1.445.22 4.326 4.326 0 0 1-1.673-.296 2.118 2.118 0 0 1-1.082-.997 4.088 4.088 0 0 1-.372-1.9V6h-1.774v7.79c-.019.702.11 1.399.38 2.046.23.533.591 1.001 1.048 1.36.46.351.986.607 1.546.752.607.16 1.232.24 1.86.236a5.56 5.56 0 0 0 2.72-.591 3.71 3.71 0 0 0 1.58-1.656c.359-.784.535-1.64.515-2.501V6h-1.606v7.248ZM84.705 9.32a3.306 3.306 0 0 0-.896.39 4.4 4.4 0 0 0-.794.633c-.04.04-.08.084-.118.126V9.21l-1.724.254v8.533h1.724v-6.383c.128-.09.26-.173.397-.25.169-.092.344-.174.523-.244.175-.068.352-.127.533-.178a3.61 3.61 0 0 1 1.183-.126l.202-1.588a3.207 3.207 0 0 0-1.03.092ZM94.556 8.99l-.946 1a3.928 3.928 0 0 0-.389-.256 4.622 4.622 0 0 0-2.298-.54 4.619 4.619 0 0 0-2.306.557 3.897 3.897 0 0 0-1.538 1.572 4.964 4.964 0 0 0-.55 2.4 5.109 5.109 0 0 0 .524 2.39c.097.184.209.36.334.526l-.942 1.004.777.71.902-.975c.13.097.266.186.407.265.69.362 1.46.542 2.24.523.809.017 1.61-.175 2.323-.557a4.007 4.007 0 0 0 1.58-1.589 4.924 4.924 0 0 0 .574-2.433 4.83 4.83 0 0 0-.532-2.324c-.1-.184-.215-.36-.343-.525L95.35 9.7l-.794-.71Zm-5.897 2.924c.19-.423.505-.777.904-1.014.42-.233.896-.35 1.377-.338.382-.008.762.064 1.115.212.19.085.365.2.52.34l-3.931 4.246a4.374 4.374 0 0 1-.306-1.739c-.02-.586.09-1.168.32-1.707Zm4.46 3.481a2.366 2.366 0 0 1-.92 1.056 2.58 2.58 0 0 1-1.344.347 2.444 2.444 0 0 1-1.326-.355 2.065 2.065 0 0 1-.314-.248l3.933-4.247c.059.135.109.273.15.414.11.41.165.834.16 1.259.02.61-.096 1.216-.338 1.775v-.001ZM100.943 9.32a3.299 3.299 0 0 0-.895.39c-.289.179-.555.392-.795.633-.04.04-.078.084-.118.126V9.21l-1.723.254v8.533h1.723v-6.383c.128-.09.26-.173.397-.25.17-.092.344-.174.524-.244.175-.068.352-.127.532-.178a3.65 3.65 0 0 1 1.183-.126l.203-1.588a3.211 3.211 0 0 0-1.031.092ZM108.277 16.587a7.373 7.373 0 0 1-.262.05l-.287.05a2.518 2.518 0 0 1-.279.034c-.09.006-.175.009-.254.009a1.698 1.698 0 0 1-.751-.152 1.085 1.085 0 0 1-.482-.448 1.425 1.425 0 0 1-.169-.718v-4.68h2.383l.186-1.353h-2.569V6.71l-1.724.608V9.38h-1.301l-.186 1.352h1.487v5.036c-.007.336.044.67.152.988.087.252.222.484.398.685.161.178.356.322.574.422.224.103.459.177.701.22.24.044.483.066.727.067.18 0 .357-.005.533-.016.175-.011.334-.028.481-.051a7.679 7.679 0 0 0 .743-.152l.102-1.403a1.332 1.332 0 0 1-.203.06ZM52.476 6.005h-3.701s2.103 3.452 2.127 3.496a.582.582 0 0 1 .014.705l-2.141 3.51h3.702s1.785-2.92 2.029-3.325a.886.886 0 0 0-.01-1.072c-.263-.448-.264-.448-2.02-3.314ZM48.297 6.005H45v11.993h3.297V6.005ZM64.07 7.992c-.125-.212-1.227-1.987-1.227-1.987h-7.922l1.73 2.903h4.173l-1.721 2.822 1.919 3.224-1.852 3.043h3.382c.544-.89 1.357-2.265 1.527-2.547a.888.888 0 0 0-.01-1.077c-.17-.289-1.075-1.725-1.617-2.61l1.627-2.695a.89.89 0 0 0-.01-1.076Z"/><path fill="#000" d="M56.449 12.12c-.522.851-1.394 2.278-1.557 2.557a.856.856 0 0 0-.01 1.037c.164.271 1.043 1.71 1.567 2.568.523-.857 1.402-2.296 1.566-2.568a.857.857 0 0 0-.01-1.037 387.962 387.962 0 0 0-1.556-2.558ZM6.004 18V6.001h3.937V18H6.004Zm9.294-10.09L17.562 18h-4.309L10.55 6.001h2.416a2.276 2.276 0 0 1 1.513.55c.42.345.71.826.82 1.36ZM18.154 18V6.001h3.937V18h-3.937Zm6.91-7.436a2.383 2.383 0 0 1-2.4-2.4 2.303 2.303 0 0 1 .323-1.2 2.411 2.411 0 0 1 3.278-.861c.355.209.652.506.861.861.215.363.326.778.322 1.2a2.4 2.4 0 0 1-1.183 2.079 2.302 2.302 0 0 1-1.2.321ZM28.057 18V6.001h3.937V18h-3.937Zm8.922-5.442c.011.012.096.15.253.414.158.265.364.603.617 1.014a315.936 315.936 0 0 1 1.597 2.62c.247.411.529.876.845 1.394h-4.326c-.27-.44-.516-.837-.735-1.191-.22-.355-.453-.738-.7-1.15-.249-.41-.494-.81-.737-1.2-.242-.389-.45-.73-.625-1.022-.175-.293-.296-.49-.363-.591a1.748 1.748 0 0 1-.287-.845c.017-.29.11-.57.27-.812.068-.113.192-.313.372-.6s.391-.628.633-1.022c.243-.395.488-.797.736-1.209l.7-1.157.736-1.2h4.326l-3.346 5.458a1.08 1.08 0 0 0-.17.542c.012.201.082.395.203.557h.001Z"/></svg>
